packages/swarm-icons/src/icons/line/Ticket.svg

<svg xmlns="http://www.w3.org/2000/svg" width="24" height="24" viewBox="0 0 24 24">
  <path fill="#757575" d="M14,20 L1,20 L1,14 C1.89490767,13.6804544 2.34236151,13.0137877 2.34236151,12 C2.34236151,10.9862123 1.89490767,10.3195456 1,10 L1,4 L14,4 L23,4 L23,10 C22.1050923,10.3195456 21.6576385,10.9862123 21.6576385,12 C21.6576385,13.0137877 22.1050923,13.6804544 23,14 L23,20 L14,20 Z M13,5 L2,5 L2,9.37696241 C2.87571626,9.92651893 3.34236151,10.8379307 3.34236151,12 C3.34236151,13.1620693 2.87571626,14.0734811 2,14.6230376 L2,19 L13,19 L22,19 L22,14.6230376 C21.1242837,14.0734811 20.6576385,13.1620693 20.6576385,12 C20.6576385,10.8379307 21.1242837,9.92651893 22,9.37696241 L22,5 L13,5 Z M17.5,7.5 C17.5,7.22385763 17.7238576,7 18,7 C18.2761424,7 18.5,7.22385763 18.5,7.5 L18.5,8.5 C18.5,8.77614237 18.2761424,9 18,9 C17.7238576,9 17.5,8.77614237 17.5,8.5 L17.5,7.5 Z M17.5,11.5 C17.5,11.2238576 17.7238576,11 18,11 C18.2761424,11 18.5,11.2238576 18.5,11.5 L18.5,12.5 C18.5,12.7761424 18.2761424,13 18,13 C17.7238576,13 17.5,12.7761424 17.5,12.5 L17.5,11.5 Z M17.5,15.5 C17.5,15.2238576 17.7238576,15 18,15 C18.2761424,15 18.5,15.2238576 18.5,15.5 L18.5,16.5 C18.5,16.7761424 18.2761424,17 18,17 C17.7238576,17 17.5,16.7761424 17.5,16.5 L17.5,15.5 Z M6,9.5 C5.72385763,9.5 5.5,9.27614237 5.5,9 C5.5,8.72385763 5.72385763,8.5 6,8.5 L15,8.5 C15.2761424,8.5 15.5,8.72385763 15.5,9 C15.5,9.27614237 15.2761424,9.5 15,9.5 L6,9.5 Z M6,12.5 C5.72385763,12.5 5.5,12.2761424 5.5,12 C5.5,11.7238576 5.72385763,11.5 6,11.5 L15,11.5 C15.2761424,11.5 15.5,11.7238576 15.5,12 C15.5,12.2761424 15.2761424,12.5 15,12.5 L6,12.5 Z"/>
</svg>

<svg xmlns="http://www.w3.org/2000/svg" width="24" height="24"><path fill="#757575" d="M14 20H1v-6c.895-.32 1.342-.986 1.342-2S1.895 10.32 1 10V4h22v6c-.895.32-1.342.986-1.342 2s.447 1.68 1.342 2v6h-9zM13 5H2v4.377c.876.55 1.342 1.46 1.342 2.623 0 1.162-.466 2.073-1.342 2.623V19h20v-4.377c-.876-.55-1.342-1.46-1.342-2.623 0-1.162.466-2.073 1.342-2.623V5h-9zm4.5 2.5a.5.5 0 111 0v1a.5.5 0 11-1 0v-1zm0 4a.5.5 0 111 0v1a.5.5 0 11-1 0v-1zm0 4a.5.5 0 111 0v1a.5.5 0 11-1 0v-1zM6 9.5a.5.5 0 010-1h9a.5.5 0 110 1H6zm0 3a.5.5 0 110-1h9a.5.5 0 110 1H6z"/></svg>
